X: 42307
T: Wedding O' Blyth, The
R: slip jig
M: 9/8
K: Cmajor
|:G|cde f2d efg|a2f gec B2G|cde f2d eg_b|a2f gec c2:|
g|c'd'c' bc'b ac'a|gag gec d2g|c'd'c' bc'b ac'a|g*c'a gec c2g|
c'd'c' bc'b ac'a|g>ag gec d2G|cde f2d eg_b|a2f gec c2||

